X:128
T:Down By the Tanyard Side
B:Terry "Cuz" Teahan "Sliabh Luachra on Parade" 1980
Z:Patrick Cavanagh
M:3/4
L:1/8
R:Waltz
K:F
D2 | G4A2 | d4e2 | G6 | A4E2 | D4E2 | G4G2 | G6 | G4d2 | 
d4d2 | c4d2 | A4G2 | F4A2 | B2c4 | A4F2 | D6 | D4c2 | 
d4d2 | c4d2 | A4G2 | F4A2 | B2c4 | A4F2 | D6 | D4DF | 
A4c2 | d4c2 | A4G2 | F4D2 | C4D2 | F4F2 | F6 | F4 :|| 

